images/icon-linkdin-outline.svg

<svg class="w-6 h-6" width="24" height="24" viewBox="0 0 24 24" fill="none" xmlns="http://www.w3.org/2000/svg"><path d="M21 14C21 12.6739 20.4728 11.4025 19.5352 10.4648C18.5975 9.52716 17.3261 9 16 9C14.6739 9 13.4025 9.52716 12.4648 10.4648C11.5272 11.4025 11 12.6739 11 14V20H13V14C13 13.2043 13.3163 12.4415 13.8789 11.8789C14.4415 11.3163 15.2043 11 16 11C16.7957 11 17.5585 11.3163 18.1211 11.8789C18.6837 12.4415 19 13.2043 19 14V20H21V14ZM23 21C23 21.5523 22.5523 22 22 22H18C17.4477 22 17 21.5523 17 21V14C17 13.7348 16.8946 13.4805 16.707 13.293C16.5195 13.1054 16.2652 13 16 13C15.7348 13 15.4805 13.1054 15.293 13.293C15.1054 13.4805 15 13.7348 15 14V21C15 21.5523 14.5523 22 14 22H10C9.44772 22 9 21.5523 9 21V14C9 12.1435 9.73705 10.3626 11.0498 9.0498C12.3626 7.73705 14.1435 7 16 7C17.8565 7 19.6374 7.73705 20.9502 9.0498C22.263 10.3626 23 12.1435 23 14V21Z" fill="white" style="fill-opacity:1;"/><path d="M6 8L6.10254 8.00488C6.60667 8.05621 7 8.48232 7 9V21C7 21.5523 6.55228 22 6 22H2C1.44772 22 1 21.5523 1 21V9L1.00488 8.89746C1.05621 8.39333 1.48232 8 2 8H6ZM3 20H5V10H3V20Z" fill="white" style="fill-opacity:1;"/><path d="M5 4C5 3.44772 4.55228 3 4 3C3.44772 3 3 3.44772 3 4C3 4.55228 3.44772 5 4 5C4.55228 5 5 4.55228 5 4ZM7 4C7 5.65685 5.65685 7 4 7C2.34315 7 1 5.65685 1 4C1 2.34315 2.34315 1 4 1C5.65685 1 7 2.34315 7 4Z" fill="white" style="fill-opacity:1;"/></svg>

<svg xmlns="http://www.w3.org/2000/svg" width="24" height="24" fill="none" class="w-6 h-6" viewBox="0 0 24 24"><path fill="#fff" d="M21 14a5 5 0 0 0-10 0v6h2v-6a3 3 0 0 1 6 0v6h2zm2 7a1 1 0 0 1-1 1h-4a1 1 0 0 1-1-1v-7a1 1 0 0 0-2 0v7a1 1 0 0 1-1 1h-4a1 1 0 0 1-1-1v-7a7 7 0 1 1 14 0zM6 8l.103.005A1 1 0 0 1 7 9v12a1 1 0 0 1-1 1H2a1 1 0 0 1-1-1V9l.005-.103A1 1 0 0 1 2 8zM3 20h2V10H3zM5 4a1 1 0 1 0-2 0 1 1 0 0 0 2 0m2 0a3 3 0 1 1-6 0 3 3 0 0 1 6 0"/></svg>
